**harm	**harte	**kern	**silbe	**kern	**silbe	**rhyme	**timestamp	**phrase	**leadinstrument
*M4/4	*M4/4	*ICvox	*	*ICvox	*	*	*	*	*
*	*	*VRlead	*	*VRharmonize	*	*	*	*	*
*	*	*Hstimme	*	*Nstimme	*	*	*	*	*
*G:	*G:	*G:	*	*G:	*	*	*	*	*
*	*	*M4/4	*	*M4/4	*	*	*	*	*
*	*	*clefG2	*	*clefG2	*	*	*	*	*
1r;	N	r;	.	r;	.	.	0	.	r
=1	=1	=1	=1	=1	=1	=1	=1	=1	=1
*>Letter>A	*>Letter>A	*>Letter>A	*>Letter>A	*>Letter>A	*>Letter>A	*>Letter>A	*>Letter>A	*>Letter>A	*>Letter>A
*>Label>Intro	*>Label>Intro	*>Label>Intro	*>Label>Intro	*>Label>Intro	*>Label>Intro	*>Label>Intro	*>Label>Intro	*>Label>Intro	*>Label>Intro
1I	G:maj	1r	.	1r	.	.	0.418	newline	harmonica
=2	=2	=2	=2	=2	=2	=2	=2	=2	=2
1IV	C:maj	1r	.	1r	.	.	2.066	.	harmonica
=3	=3	=3	=3	=3	=3	=3	=3	=3	=3
1I	G:maj	1r	.	1r	.	.	3.714	.	harmonica
=4	=4	=4	=4	=4	=4	=4	=4	=4	=4
1IV	C:maj	1r	.	1r	.	.	5.363	.	harmonica
=5	=5	=5	=5	=5	=5	=5	=5	=5	=5
1I	G:maj	1r	.	1r	.	.	7.011	newline	harmonica
=6	=6	=6	=6	=6	=6	=6	=6	=6	=6
1IV	C:maj	1r	.	1r	.	.	8.629	.	harmonica
=7	=7	=7	=7	=7	=7	=7	=7	=7	=7
1I	G:maj	1r	.	1r	.	.	10.248	.	harmonica
=8	=8	=8	=8	=8	=8	=8	=8	=8	=8
1I	G:maj	1r	.	1r	.	.	11.866	.	harmonica
=9	=9	=9	=9	=9	=9	=9	=9	=9	=9
*>Letter>B	*>Letter>B	*>Letter>B	*>Letter>B	*>Letter>B	*>Letter>B	*>Letter>B	*>Letter>B	*>Letter>B	*>Letter>B
*>Label>Verse	*>Label>Verse	*>Label>Verse	*>Label>Verse	*>Label>Verse	*>Label>Verse	*>Label>Verse	*>Label>Verse	*>Label>Verse	*>Label>Verse
1I	G:maj	2d	Love	2G	Love	.	13.485	newline	voice
.	.	4d	love	4G	love	.	.	.	.
.	.	8f	me	8d	me	.	.	.	.
.	.	[8g	do	[8c	do	A	.	.	.
=10	=10	=10	=10	=10	=10	=10	=10	=10	=10
1IV	C:maj	8g]	_	8c]	_	.	15.11	.	voice
.	.	8r	.	8r	.	.	.	.	.
.	.	4r	.	4r	.	.	.	.	.
.	.	4r	.	4r	.	.	.	.	.
.	.	4f	You	4G	You	.	.	.	.
=11	=11	=11	=11	=11	=11	=11	=11	=11	=11
1I	G:maj	2d	know	2G	know	.	16.735	.	voice
.	.	4d	I	4G	I	.	.	.	.
.	.	8f	love	8d	love	.	.	.	.
.	.	[8g	you	[8c	you	A	.	.	.
=12	=12	=12	=12	=12	=12	=12	=12	=12	=12
1IV	C:maj	8g]	_	8c]	_	.	18.36	.	voice
.	.	8r	.	8r	.	.	.	.	.
.	.	4r	.	4r	.	.	.	.	.
.	.	4r	.	4r	.	.	.	.	.
.	.	4f	I'll	4G	I'll	.	.	.	.
=13	=13	=13	=13	=13	=13	=13	=13	=13	=13
1I	G:maj	2d	al-	2G	al-	.	19.985	newline	voice
.	.	4d	-ways	4G	-ways	.	.	.	.
.	.	8f	be	8d	be	.	.	.	.
.	.	[8g	true	[8c	true	A	.	.	.
=14	=14	=14	=14	=14	=14	=14	=14	=14	=14
1IV	C:maj	8g]	_	8c]	_	.	21.636	.	voice
.	.	8r	.	8r	.	.	.	.	.
.	.	4r	.	4r	.	.	.	.	.
.	.	4r	.	4r	.	.	.	.	.
.	.	4f	so	4d	so	.	.	.	.
=15	=15	=15	=15	=15	=15	=15	=15	=15	=15
1IV	C:maj	2g	please	2e	please	.	23.286	.	voice
.	.	4g	_	4d	_	.	.	.	.
.	.	4g	_	4c	_	.	.	.	.
=16	=16	=16	=16	=16	=16	=16	=16	=16	=16
1IV	C:maj	[1g	_	[1e	_	.	24.937	.	voice
=17	=17	=17	=17	=17	=17	=17	=17	=17	=17
1IV	C:maj	8g]	_	8e]	_	.	26.588	.	voice
.	.	4.r	.	4.r	.	.	.	.	.
.	.	4G	Love	2r	.	.	.	.	.
.	.	4G	me	.	.	.	.	.	.
=18	=18	=18	=18	=18	=18	=18	=18	=18	=18
*>Letter>A	*>Letter>A	*>Letter>A	*>Letter>A	*>Letter>A	*>Letter>A	*>Letter>A	*>Letter>A	*>Letter>A	*>Letter>A
*>Label>Interlude	*>Label>Interlude	*>Label>Interlude	*>Label>Interlude	*>Label>Interlude	*>Label>Interlude	*>Label>Interlude	*>Label>Interlude	*>Label>Interlude	*>Label>Interlude
1I	G:maj	8B-	do	1r	.	A	28.238	newline	harmonica
.	.	2..G	_	.	.	.	.	.	.
=19	=19	=19	=19	=19	=19	=19	=19	=19	=19
1IV	C:maj	4r	.	1r	.	.	29.872	.	harmonica
.	.	8d-	Woh	.	.	.	.	.	.
.	.	4c	_	.	.	.	.	.	.
.	.	4r	.	.	.	.	.	.	.
.	.	[8B-	Love	.	.	.	.	.	.
=20	=20	=20	=20	=20	=20	=20	=20	=20	=20
1I	G:maj	8B-]	_	1r	.	.	31.507	.	harmonica
.	.	4G	me	.	.	.	.	.	.
.	.	[8G	do	.	.	A	.	.	.
.	.	2G]	_	.	.	.	.	.	.
=21	=21	=21	=21	=21	=21	=21	=21	=21	=21
1IV	C:maj	1r	.	1r	.	.	33.141	.	harmonica
=22	=22	=22	=22	=22	=22	=22	=22	=22	=22
*>Letter>B	*>Letter>B	*>Letter>B	*>Letter>B	*>Letter>B	*>Letter>B	*>Letter>B	*>Letter>B	*>Letter>B	*>Letter>B
*>Label>Verse	*>Label>Verse	*>Label>Verse	*>Label>Verse	*>Label>Verse	*>Label>Verse	*>Label>Verse	*>Label>Verse	*>Label>Verse	*>Label>Verse
1I	G:maj	2d	Love	2G	Love	.	34.775	newline	voice
.	.	4d	love	4G	love	.	.	.	.
.	.	8f	me	8d	me	.	.	.	.
.	.	[8g	do	[8c	do	A	.	.	.
=23	=23	=23	=23	=23	=23	=23	=23	=23	=23
1IV	C:maj	8g]	_	8c]	_	.	36.422	.	voice
.	.	8r	.	8r	.	.	.	.	.
.	.	4r	.	4r	.	.	.	.	.
.	.	4r	.	4r	.	.	.	.	.
.	.	4f	You	4G	You	.	.	.	.
=24	=24	=24	=24	=24	=24	=24	=24	=24	=24
1I	G:maj	2d	know	2G	know	.	38.069	.	voice
.	.	4d	I	4G	I	.	.	.	.
.	.	8f	love	8d	love	.	.	.	.
.	.	[8g	you	[8c	you	A	.	.	.
=25	=25	=25	=25	=25	=25	=25	=25	=25	=25
1IV	C:maj	8g]	_	8c]	_	.	39.716	.	voice
.	.	8r	.	8r	.	.	.	.	.
.	.	4r	.	4r	.	.	.	.	.
.	.	4r	.	4r	.	.	.	.	.
.	.	4f	I'll	4G	I'll	.	.	.	.
=26	=26	=26	=26	=26	=26	=26	=26	=26	=26
1I	G:maj	2d	al-	2G	al-	.	41.363	newline	voice
.	.	4d	-ways	4G	-ways	.	.	.	.
.	.	8f	be	8d	be	.	.	.	.
.	.	[8g	true	[8c	true	A	.	.	.
=27	=27	=27	=27	=27	=27	=27	=27	=27	=27
1IV	C:maj	8g]	_	8c]	_	.	43.012	.	voice
.	.	8r	.	8r	.	.	.	.	.
.	.	4r	.	4r	.	.	.	.	.
.	.	4r	.	4r	.	.	.	.	.
.	.	4f	So	4d	So	.	.	.	.
=28	=28	=28	=28	=28	=28	=28	=28	=28	=28
1IV	C:maj	2g	please	2e	please	.	44.661	.	voice
.	.	4g	_	4d	_	.	.	.	.
.	.	4g	_	4c	_	.	.	.	.
=29	=29	=29	=29	=29	=29	=29	=29	=29	=29
1IV	C:maj	[1g	_	[1e	_	.	46.31	.	voice
=30	=30	=30	=30	=30	=30	=30	=30	=30	=30
1IV	C:maj	8g]	_	8e]	_	.	47.958	.	voice
.	.	4.r	.	4.r	.	.	.	.	.
.	.	4G	Love	2r	.	.	.	.	.
.	.	4G	me	.	.	.	.	.	.
=31	=31	=31	=31	=31	=31	=31	=31	=31	=31
*>Letter>A2	*>Letter>A2	*>Letter>A2	*>Letter>A2	*>Letter>A2	*>Letter>A2	*>Letter>A2	*>Letter>A2	*>Letter>A2	*>Letter>A2
*>Label>Interlude	*>Label>Interlude	*>Label>Interlude	*>Label>Interlude	*>Label>Interlude	*>Label>Interlude	*>Label>Interlude	*>Label>Interlude	*>Label>Interlude	*>Label>Interlude
1I	G:maj	8B-	do	1r	.	A	49.607	newline	harmonica
.	.	2..G	_	.	.	.	.	.	.
=32	=32	=32	=32	=32	=32	=32	=32	=32	=32
1IV	C:maj	4r	.	1r	.	.	51.224	.	harmonica
.	.	8d-	Woh	.	.	.	.	.	.
.	.	4c	_	.	.	.	.	.	.
.	.	4r	.	.	.	.	.	.	.
.	.	[8B-	love	.	.	.	.	.	.
=33	=33	=33	=33	=33	=33	=33	=33	=33	=33
1I	G:maj	8B-]	_	1r	.	.	52.841	.	harmonica
.	.	4G	me	.	.	.	.	.	.
.	.	[8G	do	.	.	A	.	.	.
.	.	2G]	_	.	.	.	.	.	.
=34	=34	=34	=34	=34	=34	=34	=34	=34	=34
1I	G:maj	1r	.	1r	.	.	54.458	.	harmonica
=35	=35	=35	=35	=35	=35	=35	=35	=35	=35
*>Letter>C	*>Letter>C	*>Letter>C	*>Letter>C	*>Letter>C	*>Letter>C	*>Letter>C	*>Letter>C	*>Letter>C	*>Letter>C
*>Label>Bridge	*>Label>Bridge	*>Label>Bridge	*>Label>Bridge	*>Label>Bridge	*>Label>Bridge	*>Label>Bridge	*>Label>Bridge	*>Label>Bridge	*>Label>Bridge
1V	D:maj	2A	Some-	1r	.	.	56.076	newline	voice
.	.	4A	-one	.	.	.	.	.	.
.	.	4G	to	.	.	.	.	.	.
=36	=36	=36	=36	=36	=36	=36	=36	=36	=36
1V	D:maj	2.F#	love	1r	.	.	57.708	.	voice
.	.	4r	.	.	.	.	.	.	.
=37	=37	=37	=37	=37	=37	=37	=37	=37	=37
1IV	C:maj	2g	Some-	2G	Some-	.	59.34	.	voice
.	.	4f	-bo-	4F	-bo-	.	.	.	.
.	.	4c	-dy	4C	-dy	.	.	.	.
=38	=38	=38	=38	=38	=38	=38	=38	=38	=38
1I	G:maj	4B-	new	2.GG	new	A	60.973	.	voice
.	.	2G	_	.	.	.	.	.	.
.	.	4r	.	4r	.	.	.	.	.
=39	=39	=39	=39	=39	=39	=39	=39	=39	=39
1V	D:maj	2A	Some-	1r	.	.	62.605	newline	voice
.	.	4A	-one	.	.	.	.	.	.
.	.	4G	to	.	.	.	.	.	.
=40	=40	=40	=40	=40	=40	=40	=40	=40	=40
1V	D:maj	2.F#	love	1r	.	.	64.248	.	voice
.	.	4r	.	.	.	.	.	.	.
=41	=41	=41	=41	=41	=41	=41	=41	=41	=41
1IV	C:maj	2g	Some-	2G	Some-	.	65.89	.	voice
.	.	4f	-one	4F	-one	.	.	.	.
.	.	4c	like	4C	like	.	.	.	.
=42	=42	=42	=42	=42	=42	=42	=42	=42	=42
1I	G:maj	4G	you	4GG	you	A	67.532	.	voice
.	.	4r	.	4r	.	.	.	.	.
.	.	2r	.	2r	.	.	.	.	.
=43	=43	=43	=43	=43	=43	=43	=43	=43	=43
*>Letter>B	*>Letter>B	*>Letter>B	*>Letter>B	*>Letter>B	*>Letter>B	*>Letter>B	*>Letter>B	*>Letter>B	*>Letter>B
*>Label>Verse	*>Label>Verse	*>Label>Verse	*>Label>Verse	*>Label>Verse	*>Label>Verse	*>Label>Verse	*>Label>Verse	*>Label>Verse	*>Label>Verse
1I	G:maj	2d	Love	2G	Love	.	69.174	newline	voice
.	.	4d	love	4G	love	.	.	.	.
.	.	8f	me	8d	me	.	.	.	.
.	.	[8g	do	[8c	do	A	.	.	.
=44	=44	=44	=44	=44	=44	=44	=44	=44	=44
1IV	C:maj	8g]	_	8c]	_	.	70.808	.	voice
.	.	8r	.	8r	.	.	.	.	.
.	.	4r	.	4r	.	.	.	.	.
.	.	4r	.	4r	.	.	.	.	.
.	.	4f	You	4G	You	A	.	.	.
=45	=45	=45	=45	=45	=45	=45	=45	=45	=45
1I	G:maj	2d	know	2G	know	.	72.441	.	voice
.	.	4d	I	4G	I	.	.	.	.
.	.	8f	love	8d	love	.	.	.	.
.	.	[8g	you	[8c	you	A	.	.	.
=46	=46	=46	=46	=46	=46	=46	=46	=46	=46
1IV	C:maj	8g]	_	8c]	_	.	74.075	.	voice
.	.	8r	.	8r	.	.	.	.	.
.	.	4r	.	4r	.	.	.	.	.
.	.	4r	.	4r	.	.	.	.	.
.	.	4f	I'll	4G	I'll	.	.	.	.
=47	=47	=47	=47	=47	=47	=47	=47	=47	=47
1I	G:maj	2d	al-	2G	al-	.	75.708	newline	voice
.	.	4d	-ways	4G	-ways	.	.	.	.
.	.	8f	be	8d	be	.	.	.	.
.	.	[8g	true	[8c	true	A	.	.	.
=48	=48	=48	=48	=48	=48	=48	=48	=48	=48
1IV	C:maj	8g]	_	8c]	_	.	77.354	.	voice
.	.	8r	.	8r	.	.	.	.	.
.	.	4r	.	4r	.	.	.	.	.
.	.	4r	.	4r	.	.	.	.	.
.	.	4f	So	4d	So	.	.	.	.
=49	=49	=49	=49	=49	=49	=49	=49	=49	=49
1IV	C:maj	2g	please	2e	please	.	79.001	.	voice
.	.	4g	_	4d	_	.	.	.	.
.	.	4g	_	4c	_	.	.	.	.
=50	=50	=50	=50	=50	=50	=50	=50	=50	=50
1IV	C:maj	[1g	_	[1e	_	.	80.647	.	voice
=51	=51	=51	=51	=51	=51	=51	=51	=51	=51
1IV	C:maj	8g]	_	8e]	_	.	82.293	.	voice
.	.	4.r	.	4.r	.	.	.	.	.
.	.	4G	Love	2r	.	.	.	.	.
.	.	4G	me	.	.	.	.	.	.
=52	=52	=52	=52	=52	=52	=52	=52	=52	=52
*>Letter>A2	*>Letter>A2	*>Letter>A2	*>Letter>A2	*>Letter>A2	*>Letter>A2	*>Letter>A2	*>Letter>A2	*>Letter>A2	*>Letter>A2
*>Label>Interlude	*>Label>Interlude	*>Label>Interlude	*>Label>Interlude	*>Label>Interlude	*>Label>Interlude	*>Label>Interlude	*>Label>Interlude	*>Label>Interlude	*>Label>Interlude
1I	G:maj	8B-	do	1r	.	A	83.94	newline	harmonica
.	.	2..G	_	.	.	.	.	.	.
=53	=53	=53	=53	=53	=53	=53	=53	=53	=53
1IV	C:maj	4r	.	1r	.	.	85.569	.	harmonica
.	.	8d-	Woh	.	.	.	.	.	.
.	.	4.c	_	.	.	.	.	.	.
.	.	4r	.	.	.	.	.	.	.
=54	=54	=54	=54	=54	=54	=54	=54	=54	=54
1I	G:maj	8B-	love	1r	.	.	87.198	.	harmonica
.	.	4G	me	.	.	.	.	.	.
.	.	[8G	do	.	.	A	.	.	.
.	.	2G_	_	.	.	.	.	.	.
=55	=55	=55	=55	=55	=55	=55	=55	=55	=55
1I	G:maj	4G]	_	1r	.	.	88.827	.	harmonica
.	.	4r	.	.	.	.	.	.	.
.	.	2r	.	.	.	.	.	.	.
=56	=56	=56	=56	=56	=56	=56	=56	=56	=56
*>Letter>C	*>Letter>C	*>Letter>C	*>Letter>C	*>Letter>C	*>Letter>C	*>Letter>C	*>Letter>C	*>Letter>C	*>Letter>C
*>Label>Solo	*>Label>Solo	*>Label>Solo	*>Label>Solo	*>Label>Solo	*>Label>Solo	*>Label>Solo	*>Label>Solo	*>Label>Solo	*>Label>Solo
1V	D:maj	1r	.	1r	.	.	90.456	newline	harmonica
=57	=57	=57	=57	=57	=57	=57	=57	=57	=57
1V	D:maj	1r	.	1r	.	.	92.056	.	harmonica
=58	=58	=58	=58	=58	=58	=58	=58	=58	=58
1IV	C:maj	1r	.	1r	.	.	93.655	.	harmonica
=59	=59	=59	=59	=59	=59	=59	=59	=59	=59
1I	G:maj	1r	.	1r	.	.	95.254	.	harmonica
=60	=60	=60	=60	=60	=60	=60	=60	=60	=60
1V	D:maj	1r	.	1r	.	.	96.854	newline	harmonica
=61	=61	=61	=61	=61	=61	=61	=61	=61	=61
1V	D:maj	1r	.	1r	.	.	98.467	.	harmonica
=62	=62	=62	=62	=62	=62	=62	=62	=62	=62
1IV	C:maj	1r	.	1r	.	.	100.081	.	harmonica
=63	=63	=63	=63	=63	=63	=63	=63	=63	=63
1I	G:maj	1r	.	1r	.	.	101.694	.	harmonica
=64	=64	=64	=64	=64	=64	=64	=64	=64	=64
*>Letter>A3	*>Letter>A3	*>Letter>A3	*>Letter>A3	*>Letter>A3	*>Letter>A3	*>Letter>A3	*>Letter>A3	*>Letter>A3	*>Letter>A3
*>Label>Trans	*>Label>Trans	*>Label>Trans	*>Label>Trans	*>Label>Trans	*>Label>Trans	*>Label>Trans	*>Label>Trans	*>Label>Trans	*>Label>Trans
1I	G:maj	1r	.	1r	.	.	103.308	newline	harmonica
=65	=65	=65	=65	=65	=65	=65	=65	=65	=65
1I	G:maj	1r	.	1r	.	.	104.932	.	harmonica
=66	=66	=66	=66	=66	=66	=66	=66	=66	=66
1I	G:maj	1r	.	1r	.	.	106.556	.	harmonica
=67	=67	=67	=67	=67	=67	=67	=67	=67	=67
2I	G:maj	1r	.	1r	.	.	108.18	.	harmonica
2V	D:maj	.	.	.	.	.	108.992	.	harmonica
=68	=68	=68	=68	=68	=68	=68	=68	=68	=68
*>Letter>B	*>Letter>B	*>Letter>B	*>Letter>B	*>Letter>B	*>Letter>B	*>Letter>B	*>Letter>B	*>Letter>B	*>Letter>B
*>Label>Verse	*>Label>Verse	*>Label>Verse	*>Label>Verse	*>Label>Verse	*>Label>Verse	*>Label>Verse	*>Label>Verse	*>Label>Verse	*>Label>Verse
1I	G:maj	2d	Love	2G	Love	.	109.804	newline	voice
.	.	4d	love	4G	love	.	.	.	.
.	.	8f	me	8d	me	.	.	.	.
.	.	[8g	do	[8c	do	A	.	.	.
=69	=69	=69	=69	=69	=69	=69	=69	=69	=69
1IV	C:maj	8g]	_	8c]	_	.	111.402	.	voice
.	.	8r	.	8r	.	.	.	.	.
.	.	4r	.	4r	.	.	.	.	.
.	.	4r	.	4r	.	.	.	.	.
.	.	4f	You	4G	You	A	.	.	.
=70	=70	=70	=70	=70	=70	=70	=70	=70	=70
1I	G:maj	2d	know	2G	know	.	113	.	voice
.	.	4d	I	4G	I	.	.	.	.
.	.	8f	love	8d	love	.	.	.	.
.	.	[8g	you	[8c	you	A	.	.	.
=71	=71	=71	=71	=71	=71	=71	=71	=71	=71
1IV	C:maj	8g]	_	8c]	_	.	114.598	.	voice
.	.	8r	.	8r	.	.	.	.	.
.	.	4r	.	4r	.	.	.	.	.
.	.	4r	.	4r	.	.	.	.	.
.	.	4f	I'll	4G	I'll	.	.	.	.
=72	=72	=72	=72	=72	=72	=72	=72	=72	=72
1I	G:maj	2d	al-	2G	al-	.	116.197	newline	voice
.	.	4d	-ways	4G	-ways	.	.	.	.
.	.	8f	be	8d	be	.	.	.	.
.	.	[8g	true	[8c	true	A	.	.	.
=73	=73	=73	=73	=73	=73	=73	=73	=73	=73
1IV	C:maj	8g]	_	8c]	_	.	117.829	.	voice
.	.	8r	.	8r	.	.	.	.	.
.	.	4r	.	4r	.	.	.	.	.
.	.	4r	.	4r	.	.	.	.	.
.	.	4f	So	4d	So	.	.	.	.
=74	=74	=74	=74	=74	=74	=74	=74	=74	=74
1IV	C:maj	2g	please	2e	please	.	119.462	.	voice
.	.	4g	_	4d	_	.	.	.	.
.	.	4g	_	4c	_	.	.	.	.
=75	=75	=75	=75	=75	=75	=75	=75	=75	=75
1IV	C:maj	[1g	_	[1e	_	.	121.095	.	voice
=76	=76	=76	=76	=76	=76	=76	=76	=76	=76
1IV	C:maj	8g]	_	8e]	_	.	122.728	.	voice
.	.	4.r	.	4.r	.	.	.	.	.
.	.	4G	Love	2r	.	.	.	.	.
.	.	4G	me	.	.	.	.	.	.
=77	=77	=77	=77	=77	=77	=77	=77	=77	=77
*>Letter>A	*>Letter>A	*>Letter>A	*>Letter>A	*>Letter>A	*>Letter>A	*>Letter>A	*>Letter>A	*>Letter>A	*>Letter>A
*>Label>Outro	*>Label>Outro	*>Label>Outro	*>Label>Outro	*>Label>Outro	*>Label>Outro	*>Label>Outro	*>Label>Outro	*>Label>Outro	*>Label>Outro
1I	G:maj	8B-	do	1r	.	A	124.36	newline	harmonica
.	.	2..G	_	.	.	.	.	.	.
=78	=78	=78	=78	=78	=78	=78	=78	=78	=78
1IV	C:maj	4r	.	1r	.	.	125.971	.	harmonica
.	.	8d-	Woh	.	.	.	.	.	.
.	.	4c	_	.	.	.	.	.	.
.	.	4r	.	.	.	.	.	.	.
.	.	[8B-	love	.	.	.	.	.	.
=79	=79	=79	=79	=79	=79	=79	=79	=79	=79
1I	G:maj	8B-]	_	1r	.	.	127.581	.	harmonica
.	.	4G	me	.	.	.	.	.	.
.	.	[8G	do	.	.	A	.	.	.
.	.	2G]	_	.	.	.	.	.	.
=80	=80	=80	=80	=80	=80	=80	=80	=80	=80
1IV	C:maj	4.r	.	1r	.	.	129.191	.	harmonica
.	.	2g	Yeah	.	.	.	.	.	.
.	.	[8b-	love	.	.	.	.	.	.
=81	=81	=81	=81	=81	=81	=81	=81	=81	=81
*>Label>>Fadeout	*>Label>>Fadeout	*>Label>>Fadeout	*>Label>>Fadeout	*>Label>>Fadeout	*>Label>>Fadeout	*>Label>>Fadeout	*>Label>>Fadeout	*>Label>>Fadeout	*>Label>>Fadeout
1I	G:maj	8b-]	_	1r	.	.	130.802	newline	harmonica voice
.	.	4g	me	.	.	.	.	.	.
.	.	[8g	do	.	.	A	.	.	.
.	.	4g]	_	.	.	.	.	.	.
.	.	4r	.	.	.	.	.	.	.
=82	=82	=82	=82	=82	=82	=82	=82	=82	=82
1IV	C:maj	4r	.	1r	.	.	132.25	.	harmonica voice
.	.	8d-	Woh	.	.	.	.	.	.
.	.	4.c	_	.	.	.	.	.	.
.	.	4r	.	.	.	.	.	.	.
=83	=83	=83	=83	=83	=83	=83	=83	=83	=83
1I	G:maj	8B-	love	1r	.	.	133.698	.	harmonica voice
.	.	4G	me	.	.	.	.	.	.
.	.	[8G	do	.	.	A	.	.	.
.	.	2G]	_	.	.	.	.	.	.
=84	=84	=84	=84	=84	=84	=84	=84	=84	=84
1IV	C:maj	4.r	.	1r	.	.	135.146	.	harmonica voice
.	.	4.B-	Yeah	.	.	.	.	.	.
.	.	4r	.	.	.	.	.	.	.
=85	=85	=85	=85	=85	=85	=85	=85	=85	=85
1I	G:maj	1r	.	1r	.	.	136.594	.	harmonica voice
1r;	N	r;	.	r;	.	.	138.043	.	r
1r;	N	r;	.	r;	.	.	142.811	.	r
*-	*-	*-	*-	*-	*-	*-	*-	*-	*-
!!!BillboardChartDate: 1964/07/11
!!!BillboardPeak: 1
!!!BillboardWeeksOnChart: 14
!!!COC: The Beatles
!!!ENC: Nathaniel Condit-Schultz
!!!EST: Awating manual error checking and editing.
!!!OTL: Love Me Do
!!!RDF**harte: Chris Harte's syntax, used by MIREX
!!!RDF**harmony: **recip + pitch class of root + harmonic quality
!!!RDF**leadinstrument: original McGill primary instrumentation annotation
!!!RDF**phrase: newline = linebreak in original McGill transcription
!!!RDF**timestamp: McGill audio timestamp in seconds
!!!RDT: 2017/01/12/
!!!SampleActualRank: 24
!!!SampleID#: 0050
!!!SampleTargetRank: 23
!!!MBID: 1f518811-7cf9-4bdc-a656-0958e130f312
